X:0178
T:The three Sheep Skins.
N:the tune of the Incorporation of Skinners
M:C
L:1/8
Q:1/2=84
I: :: ::
Z:Jack Campin * www.campin.me.uk * 2009
K:D Mixolydian
B|GABc d2 dB|c2cA    d2A2|GABc dedc|BABc    d2A:|
c|BGGA G>AGB|AGFE {G}F2Dc|BGGA BcdB|AGFE {G}F2D:|

